symbols/web/border_color/materialsymbolssharp/border_color_wght300gradN25fill1_24px.svg

<svg xmlns="http://www.w3.org/2000/svg" height="24" width="24"><path d="M2.125 23.825v-2.8h19.75v2.8Zm2.4-5.2v-2.9l8.85-8.8 2.925 2.9-8.8 8.8ZM17.2 8.8l-2.875-2.85 2.075-2.1 2.875 2.9Z"/></svg>

<svg xmlns="http://www.w3.org/2000/svg" height="24" width="24"><path d="M2.125 23.825V21.025H21.875V23.825ZM4.525 18.625V15.725L13.375 6.925L16.3 9.825L7.5 18.625ZM17.2 8.8 14.325 5.95 16.4 3.85 19.275 6.75Z"/></svg>
